source/img/whatwedo/content-1.svg

<svg width="284" height="216" fill="none" xmlns="http://www.w3.org/2000/svg"><path d="M211.522 137.763a65.547 65.547 0 01-5.648 26.668 65.95 65.95 0 01-16.026 22.121 67.736 67.736 0 01-5.987 4.83 66.142 66.142 0 01-8.434 5.135h-.031c-.626.327-1.262.637-1.903.938a64.748 64.748 0 01-6.592 2.685c-1.539.509-3.119 1.019-4.715 1.437a67.277 67.277 0 01-28.215 1.319 63.994 63.994 0 01-3.304-.631l-.924-.209a66.098 66.098 0 01-14.513-5.218 66.34 66.34 0 01-26.64-24.066 65.74 65.74 0 01-10.082-33.034 65.703 65.703 0 018.07-33.575 66.266 66.266 0 0124.018-24.95 66.864 66.864 0 0133.41-9.514 66.883 66.883 0 0133.681 8.518 66.298 66.298 0 0124.758 24.226 65.712 65.712 0 019.077 33.32z" fill="url(#paint0_linear)"/><path d="M162.432 142.542c4.237 4.331 16.58 21.185 16.58 21.185l-7.582 11.04-6.818-21.933-2.18-10.292z" fill="url(#paint1_linear)"/><path d="M175.396 196.553c-.626.326-1.262.637-1.904.938-.292.142-.579.275-.877.407a64.326 64.326 0 01-5.715 2.278c-1.539.509-3.119 1.019-4.714 1.436a67.265 67.265 0 01-28.216 1.32 63.148 63.148 0 01-3.304-.632c-4.001 2.741-7.695 5.059-10.142 6.114l.2-1.696.831-7.098 1.924-16.512 7.623-7.322-17.139 1.32s1.801-24.812 8.829-29.917c7.028-5.106 14.4-9.681 14.4-9.681a9.64 9.64 0 002.868 1.269c2.437.669 4.971.926 7.495.759 3.006-.138 6.012-2.914 6.156-3.057 0 0 4.719.932 8.721 6.083a24.393 24.393 0 014.212 8.896c.985 3.765 2.734 12.559 4.725 23.182 1.303 6.837 2.672 14.419 4.027 21.913z" fill="url(#paint2_linear)"/><path d="M179.012 163.747l7.316 8.514 25.727-25.363.975-5.192 5.13-4.427-2.283 6.751v8.793s-19.843 31.946-25.312 33.591c-6.397 1.931-19.125-11.657-19.125-11.657l7.572-11.01z" fill="url(#paint3_linear)"/><path d="M152.306 175.389l5.966 14.266 7.71-3.292-5.653-13.96-8.023 2.986z" fill="#7E57C2"/><path d="M160.616 184.606c-.959.784-2.391.601-4.166.692a10.243 10.243 0 00-6.464 2.517c-2.385 1.992-9.054 7.205-15.723 11.963-1.211.861-2.422 1.712-3.591 2.548-4.002 2.741-7.695 5.059-10.142 6.113a6.142 6.142 0 01-2.053.597c-3.426.086-4.16-7.047-4.37-12.738-.067-1.89-.082-3.617-.118-4.865-.144-4.993 0-14.266 0-14.266l17.139-1.325-1.816 11.79-.318 2.084v.015l5.13-1.885.159-.056 18.212-6.72 1.257-2.155.8 2.037h.077l7.798-1.018s.133 3.087-1.811 4.672z" fill="url(#paint4_linear)"/><path d="M156.681 110.25c-.447-1.212-.831-2.038-.944-2.282v-.061s-.395.968-3.371.733c-2.975-.234-3.96-1.701-3.96-1.701s.934 3.179-2.611 4.539c-3.412 1.315-4.756.464-4.848.403.179.193 2.847 3.026 1.077 5.273-1.831 2.328-5.951 1.87-5.951 1.87v.03a36.052 36.052 0 001.739 3.409c.339.581.672 1.116 1.026 1.615v.036a11.648 11.648 0 003.591 3.653 17.48 17.48 0 01-5.237 9.756c.928.482 1.886.905 2.867 1.269 1.914.718 4.484 1.432 6.777 1.233a10.745 10.745 0 006.885-3.526l-1.175-4.478-1.057-4.035c9.552-2.42 6.926-12.946 5.192-17.736zm-5.725 17.883l.169-.04.272-.077a4.61 4.61 0 01-1.242.337c.221-.057.447-.118.683-.189l.118-.031z" fill="url(#paint5_linear)"/><path d="M162.432 107.774c-3.94 3.597-5.643 2.583-5.751 2.487v-.011c-.446-1.212-.831-2.038-.938-2.282l-.026-.061s-.4.968-3.376.733c-2.975-.234-3.955-1.701-3.955-1.701s.934 3.179-2.611 4.539c-3.417 1.315-4.761.464-4.848.403.18.188 2.847 3.021 1.077 5.268-1.831 2.328-5.951 1.875-5.951 1.875v.025a36.136 36.136 0 001.739 3.414c.342.577.684 1.116 1.026 1.615v.036s-1.405 2.746-3.914 2.69c-2.508-.056-2.565-2.548-2.565-2.548s-1.775 3.179-7.259.117-1.826-7.499-1.826-7.499-3.889-2.955-3.889-7.383c0-4.427 6.054-7.795 6.054-7.795s-2.165-5.14 1.487-7.974c3.653-2.832 9.142-.912 9.142-.912s-.107-6.577 5.484-6.47c5.592.107 6.859 3.505 6.859 3.505s5.028-3.862 10.004-.224 2.929 9.981 2.929 9.981 5.217 4.427 1.108 8.172z" fill="url(#paint6_linear)"/><path opacity=".15" d="M152.587 132.006c-2.385-.749-6.628-3.608-6.628-3.608a16.01 16.01 0 005.012-.264l.169-.041.329-.097h.046l1.072 4.01zm-19.171 28.541l-2.313 15.285-1.816 11.79-4.227 3.49 9.198-3.317s-2.386-6.766-.842-27.248zm-2.76 41.753c1.093.24 2.191.449 3.304.632.056-1.044.159-2.099.303-3.154l-3.607 2.522z" fill="#000"/><g filter="url(#filter0_d)"><path d="M108.423 12h-27.43c-3.786 0-6.854 3.047-6.854 6.807v27.242c0 3.76 3.068 6.807 6.854 6.807h27.43c3.785 0 6.854-3.047 6.854-6.807V18.807c0-3.76-3.069-6.807-6.854-6.807z" fill="#56CCF2"/></g><path d="M105 31h-4.17l3.24-3.24-1.41-1.42L98 31h-2v-2l4.66-4.66-1.42-1.41L96 26.17V22h-2v4.17l-3.24-3.24-1.42 1.41L94 29v2h-2l-4.66-4.66-1.41 1.42L89.17 31H85v2h4.17l-3.24 3.24 1.41 1.42L92 33h2v2l-4.66 4.66 1.42 1.41L94 37.83V42h2v-4.17l3.24 3.24 1.42-1.41L96 35v-2h2l4.66 4.66 1.41-1.42-3.24-3.24H105v-2z" fill="#fff"/><g filter="url(#filter1_d)"><path d="M250.284 115h-27.43c-3.785 0-6.854 3.048-6.854 6.807v27.242c0 3.76 3.069 6.807 6.854 6.807h27.43c3.786 0 6.854-3.047 6.854-6.807v-27.242c0-3.759-3.068-6.807-6.854-6.807z" fill="#F2C94C"/></g><path d="M246 132c0-5-4-9-9-9s-9 4-9 9c0 3.1 1.6 5.9 4 7.5v2.5c0 1.3.8 2.4 2 2.8v.2c0 1.7 1.3 3 3 3s3-1.3 3-3v-.2c1.2-.4 2-1.5 2-2.8v-2.5c2.4-1.6 4-4.4 4-7.5zm-16 0c0-3.9 3.1-7 7-7s7 3.1 7 7c0 3.5-2.6 6.4-6 6.9v-2.5l1.7-1.7c.4-.4.4-1 0-1.4-.4-.4-1-.4-1.4 0l-1.3 1.3-1.3-1.3c-.4-.4-1-.4-1.4 0-.4.4-.4 1 0 1.4l1.7 1.7v2.5c-3.4-.5-6-3.4-6-6.9zm7 14c-.6 0-1-.4-1-1h2c0 .6-.4 1-1 1zm3-4c0 .6-.4 1-1 1h-4c-.6 0-1-.4-1-1v-1.5c.9.3 1.9.5 3 .5s2.1-.2 3-.5v1.5z" fill="#fff"/><g filter="url(#filter2_d)"><path d="M67.284 115h-27.43c-3.785 0-6.854 3.048-6.854 6.807v27.242c0 3.76 3.069 6.807 6.854 6.807h27.43c3.786 0 6.854-3.047 6.854-6.807v-27.242c0-3.759-3.068-6.807-6.854-6.807z" fill="#F58A8A"/></g><path d="M60 132h-1v-2c0-2.76-2.24-5-5-5s-5 2.24-5 5v2h-1c-1.1 0-2 .9-2 2v10c0 1.1.9 2 2 2h12c1.1 0 2-.9 2-2v-10c0-1.1-.9-2-2-2zm-6 9c-1.1 0-2-.9-2-2s.9-2 2-2 2 .9 2 2-.9 2-2 2zm3.1-9h-6.2v-2c0-1.71 1.39-3.1 3.1-3.1 1.71 0 3.1 1.39 3.1 3.1v2z" fill="#fff"/><g filter="url(#filter3_d)"><path d="M205.284 12h-27.43c-3.785 0-6.854 3.047-6.854 6.807v27.242c0 3.76 3.069 6.807 6.854 6.807h27.43c3.786 0 6.854-3.047 6.854-6.807V18.807c0-3.76-3.068-6.807-6.854-6.807z" fill="#6FCF97"/></g><path d="M197.311 26.896h-16.332v10.207h16.332V26.896zm4.402 2.032l-3.605 1.515V33.6l3.605 1.515h1.307v-6.187h-1.307z" fill="#fff"/><defs><linearGradient id="paint0_linear" x1="145.273" y1="78.865" x2="143.029" y2="209.076" gradientUnits="userSpaceOnUse"><stop stop-color="#fff" stop-opacity="0"/><stop offset="1" stop-color="#64B5F6" stop-opacity=".6"/></linearGradient><linearGradient id="paint1_linear" x1="157.409" y1="138.165" x2="175.559" y2="170.279" gradientUnits="userSpaceOnUse"><stop stop-color="#E57373"/><stop offset="1" stop-color="#AD1457"/></linearGradient><linearGradient id="paint2_linear" x1="28164.2" y1="39796.5" x2="26252.2" y2="49297.9" gradientUnits="userSpaceOnUse"><stop stop-color="#E57373"/><stop offset="1" stop-color="#AD1457"/></linearGradient><linearGradient id="paint3_linear" x1="225.122" y1="149.94" x2="175.589" y2="178.833" gradientUnits="userSpaceOnUse"><stop stop-color="#FFF8E1"/><stop offset="1" stop-color="#FFCC80"/></linearGradient><linearGradient id="paint4_linear" x1="21675.4" y1="22321.6" x2="19004.7" y2="20508.4" gradientUnits="userSpaceOnUse"><stop stop-color="#FFF8E1"/><stop offset="1" stop-color="#FFCC80"/></linearGradient><linearGradient id="paint5_linear" x1="161.703" y1="115.439" x2="134.661" y2="126.652" gradientUnits="userSpaceOnUse"><stop stop-color="#FFF8E1"/><stop offset="1" stop-color="#FFCC80"/></linearGradient><linearGradient id="paint6_linear" x1="155.486" y1="86.146" x2="124.053" y2="128.911" gradientUnits="userSpaceOnUse"><stop stop-color="#FFB74D"/><stop offset="1" stop-color="#F4511E"/></linearGradient><filter id="filter0_d" x="64.139" y="2" width="71.138" height="70.856" filterUnits="userSpaceOnUse" color-interpolation-filters="sRGB"><feFlood flood-opacity="0" result="BackgroundImageFix"/><feColorMatrix in="SourceAlpha" values="0 0 0 0 0 0 0 0 0 0 0 0 0 0 0 0 0 0 127 0"/><feOffset dx="5" dy="5"/><feGaussianBlur stdDeviation="7.5"/><feColorMatrix values="0 0 0 0 0 0 0 0 0 0 0 0 0 0 0 0 0 0 0.15 0"/><feBlend in2="BackgroundImageFix" result="effect1_dropShadow"/><feBlend in="SourceGraphic" in2="effect1_dropShadow" result="shape"/></filter><filter id="filter1_d" x="206" y="105" width="71.138" height="70.856" filterUnits="userSpaceOnUse" color-interpolation-filters="sRGB"><feFlood flood-opacity="0" result="BackgroundImageFix"/><feColorMatrix in="SourceAlpha" values="0 0 0 0 0 0 0 0 0 0 0 0 0 0 0 0 0 0 127 0"/><feOffset dx="5" dy="5"/><feGaussianBlur stdDeviation="7.5"/><feColorMatrix values="0 0 0 0 0 0 0 0 0 0 0 0 0 0 0 0 0 0 0.15 0"/><feBlend in2="BackgroundImageFix" result="effect1_dropShadow"/><feBlend in="SourceGraphic" in2="effect1_dropShadow" result="shape"/></filter><filter id="filter2_d" x="23" y="105" width="71.138" height="70.856" filterUnits="userSpaceOnUse" color-interpolation-filters="sRGB"><feFlood flood-opacity="0" result="BackgroundImageFix"/><feColorMatrix in="SourceAlpha" values="0 0 0 0 0 0 0 0 0 0 0 0 0 0 0 0 0 0 127 0"/><feOffset dx="5" dy="5"/><feGaussianBlur stdDeviation="7.5"/><feColorMatrix values="0 0 0 0 0 0 0 0 0 0 0 0 0 0 0 0 0 0 0.15 0"/><feBlend in2="BackgroundImageFix" result="effect1_dropShadow"/><feBlend in="SourceGraphic" in2="effect1_dropShadow" result="shape"/></filter><filter id="filter3_d" x="161" y="2" width="71.138" height="70.856" filterUnits="userSpaceOnUse" color-interpolation-filters="sRGB"><feFlood flood-opacity="0" result="BackgroundImageFix"/><feColorMatrix in="SourceAlpha" values="0 0 0 0 0 0 0 0 0 0 0 0 0 0 0 0 0 0 127 0"/><feOffset dx="5" dy="5"/><feGaussianBlur stdDeviation="7.5"/><feColorMatrix values="0 0 0 0 0 0 0 0 0 0 0 0 0 0 0 0 0 0 0.15 0"/><feBlend in2="BackgroundImageFix" result="effect1_dropShadow"/><feBlend in="SourceGraphic" in2="effect1_dropShadow" result="shape"/></filter></defs></svg>

<svg width="284" height="216" viewBox="0 0 284 216" fill="none" xmlns="http://www.w3.org/2000/svg">
<path d="M211.522 137.763C211.53 146.946 209.606 156.029 205.874 164.431C202.141 172.833 196.683 180.367 189.848 186.552C187.946 188.274 185.947 189.886 183.861 191.382C181.183 193.301 178.363 195.017 175.427 196.517H175.396C174.77 196.844 174.134 197.154 173.493 197.455C173.2 197.598 172.913 197.73 172.616 197.863C170.758 198.708 168.854 199.467 166.901 200.14C165.362 200.649 163.782 201.159 162.186 201.577C152.983 204.008 143.363 204.458 133.971 202.896C132.857 202.713 131.76 202.504 130.667 202.265L129.743 202.056C126.956 201.409 124.214 200.582 121.535 199.58C119.979 198.999 118.454 198.362 116.959 197.669C116.38 197.399 115.8 197.124 115.23 196.838C114.841 196.645 114.456 196.446 114.071 196.247C103.633 190.803 94.839 182.702 88.5902 172.772C82.3414 162.843 78.862 151.442 78.5084 139.738C78.1549 128.034 80.9398 116.447 86.578 106.163C92.2162 95.8798 100.505 87.2691 110.596 81.2132C120.687 75.1572 132.217 71.8736 144.006 71.6985C155.795 71.5235 167.418 74.4633 177.687 80.2169C187.956 85.9705 196.5 94.3311 202.445 104.443C208.391 114.554 211.523 126.054 211.522 137.763Z" fill="url(#paint0_linear)"/>
<path d="M162.432 142.542C166.669 146.873 179.012 163.727 179.012 163.727L171.43 174.767L164.612 152.834L162.432 142.542Z" fill="url(#paint1_linear)"/>
<path d="M175.396 196.553C174.77 196.879 174.134 197.19 173.492 197.491C173.2 197.633 172.913 197.766 172.615 197.898C170.758 198.744 168.853 199.503 166.9 200.176C165.361 200.685 163.781 201.195 162.186 201.612C152.983 204.044 143.363 204.494 133.97 202.932C132.857 202.749 131.759 202.54 130.666 202.3C126.665 205.041 122.971 207.359 120.524 208.414L120.724 206.718L121.555 199.62L123.479 183.108L131.102 175.786L113.963 177.106C113.963 177.106 115.764 152.294 122.792 147.189C129.82 142.083 137.192 137.508 137.192 137.508C138.071 138.084 139.04 138.513 140.06 138.777C142.497 139.446 145.031 139.703 147.555 139.536C150.561 139.398 153.567 136.622 153.711 136.479C153.711 136.479 158.43 137.411 162.432 142.562C164.428 145.214 165.86 148.24 166.644 151.458C167.629 155.223 169.378 164.017 171.369 174.64C172.672 181.477 174.041 189.059 175.396 196.553Z" fill="url(#paint2_linear)"/>
<path d="M179.012 163.747L186.328 172.261L212.055 146.898L213.03 141.706L218.16 137.279L215.877 144.03V152.823C215.877 152.823 196.034 184.769 190.565 186.414C184.168 188.345 171.44 174.757 171.44 174.757L179.012 163.747Z" fill="url(#paint3_linear)"/>
<path d="M152.306 175.389L158.272 189.655L165.982 186.363L160.329 172.403L152.306 175.389Z" fill="#7E57C2"/>
<path d="M160.616 184.606C159.657 185.39 158.225 185.207 156.45 185.298C154.066 185.361 151.778 186.251 149.986 187.815C147.601 189.807 140.932 195.02 134.263 199.778C133.052 200.639 131.841 201.49 130.672 202.326C126.67 205.067 122.977 207.385 120.53 208.439C119.886 208.757 119.191 208.958 118.477 209.036C115.051 209.122 114.317 201.989 114.107 196.298C114.04 194.408 114.025 192.681 113.989 191.433C113.845 186.44 113.989 177.167 113.989 177.167L131.128 175.842L129.312 187.632L128.994 189.716V189.731L134.124 187.846L134.283 187.79L152.495 181.07L153.752 178.915L154.552 180.952H154.629L162.427 179.934C162.427 179.934 162.56 183.021 160.616 184.606Z" fill="url(#paint4_linear)"/>
<path d="M156.681 110.25C156.234 109.038 155.85 108.212 155.737 107.968V107.907C155.737 107.907 155.342 108.875 152.366 108.64C149.391 108.406 148.406 106.939 148.406 106.939C148.406 106.939 149.34 110.118 145.795 111.478C142.383 112.793 141.039 111.942 140.947 111.881C141.126 112.074 143.794 114.907 142.024 117.154C140.193 119.482 136.073 119.024 136.073 119.024V119.054C136.592 120.22 137.172 121.358 137.812 122.463C138.151 123.044 138.484 123.579 138.838 124.078V124.114C139.747 125.581 140.974 126.829 142.429 127.767C141.79 131.495 139.952 134.918 137.192 137.523C138.12 138.005 139.078 138.428 140.059 138.792C141.973 139.51 144.543 140.224 146.836 140.025C149.493 139.743 151.948 138.486 153.721 136.499L152.546 132.021L151.489 127.986C161.041 125.566 158.415 115.04 156.681 110.25ZM150.956 128.133L151.125 128.093L151.397 128.016C151.001 128.186 150.583 128.299 150.155 128.353C150.376 128.296 150.602 128.235 150.838 128.164L150.956 128.133Z" fill="url(#paint5_linear)"/>
<path d="M162.432 107.774C158.492 111.371 156.789 110.357 156.681 110.261V110.25C156.235 109.038 155.85 108.212 155.743 107.968L155.717 107.907C155.717 107.907 155.317 108.875 152.341 108.64C149.366 108.406 148.386 106.939 148.386 106.939C148.386 106.939 149.32 110.118 145.775 111.478C142.358 112.793 141.014 111.942 140.927 111.881C141.107 112.069 143.774 114.902 142.004 117.149C140.173 119.477 136.053 119.024 136.053 119.024V119.049C136.572 120.217 137.152 121.356 137.792 122.463C138.134 123.04 138.476 123.579 138.818 124.078V124.114C138.818 124.114 137.413 126.86 134.904 126.804C132.396 126.748 132.339 124.256 132.339 124.256C132.339 124.256 130.564 127.435 125.08 124.373C119.596 121.311 123.254 116.874 123.254 116.874C123.254 116.874 119.365 113.919 119.365 109.491C119.365 105.064 125.419 101.696 125.419 101.696C125.419 101.696 123.254 96.5552 126.906 93.7224C130.559 90.8897 136.048 92.8104 136.048 92.8104C136.048 92.8104 135.941 86.2329 141.532 86.3399C147.124 86.4469 148.391 89.8452 148.391 89.8452C148.391 89.8452 153.419 85.9833 158.395 89.621C163.371 93.2588 161.324 99.602 161.324 99.602C161.324 99.602 166.541 104.029 162.432 107.774Z" fill="url(#paint6_linear)"/>
<path opacity="0.15" d="M152.587 132.006C150.202 131.257 145.959 128.398 145.959 128.398C147.633 128.574 149.325 128.485 150.971 128.134L151.14 128.093L151.469 127.996H151.515L152.587 132.006Z" fill="black"/>
<path opacity="0.15" d="M133.416 160.547L131.103 175.832L129.287 187.622L125.06 191.112L134.258 187.795C134.258 187.795 131.872 181.029 133.416 160.547Z" fill="black"/>
<path opacity="0.15" d="M130.656 202.3C131.749 202.54 132.847 202.749 133.96 202.932C134.016 201.888 134.119 200.833 134.263 199.778L130.656 202.3Z" fill="black"/>
<g filter="url(#filter0_d)">
<path d="M108.423 12H80.9925C77.2072 12 74.1387 15.0475 74.1387 18.8068V46.0493C74.1387 49.8086 77.2072 52.8561 80.9925 52.8561H108.423C112.208 52.8561 115.277 49.8086 115.277 46.0493V18.8068C115.277 15.0475 112.208 12 108.423 12Z" fill="#56CCF2"/>
</g>
<path d="M105 31H100.83L104.07 27.76L102.66 26.34L98 31H96V29L100.66 24.34L99.24 22.93L96 26.17V22H94V26.17L90.76 22.93L89.34 24.34L94 29V31H92L87.34 26.34L85.93 27.76L89.17 31H85V33H89.17L85.93 36.24L87.34 37.66L92 33H94V35L89.34 39.66L90.76 41.07L94 37.83V42H96V37.83L99.24 41.07L100.66 39.66L96 35V33H98L102.66 37.66L104.07 36.24L100.83 33H105V31Z" fill="white"/>
<g filter="url(#filter1_d)">
<path d="M250.284 115H222.854C219.069 115 216 118.048 216 121.807V149.049C216 152.809 219.069 155.856 222.854 155.856H250.284C254.07 155.856 257.138 152.809 257.138 149.049V121.807C257.138 118.048 254.07 115 250.284 115Z" fill="#F2C94C"/>
</g>
<path d="M246 132C246 127 242 123 237 123C232 123 228 127 228 132C228 135.1 229.6 137.9 232 139.5V142C232 143.3 232.8 144.4 234 144.8V145C234 146.7 235.3 148 237 148C238.7 148 240 146.7 240 145V144.8C241.2 144.4 242 143.3 242 142V139.5C244.4 137.9 246 135.1 246 132ZM230 132C230 128.1 233.1 125 237 125C240.9 125 244 128.1 244 132C244 135.5 241.4 138.4 238 138.9V136.4L239.7 134.7C240.1 134.3 240.1 133.7 239.7 133.3C239.3 132.9 238.7 132.9 238.3 133.3L237 134.6L235.7 133.3C235.3 132.9 234.7 132.9 234.3 133.3C233.9 133.7 233.9 134.3 234.3 134.7L236 136.4V138.9C232.6 138.4 230 135.5 230 132ZM237 146C236.4 146 236 145.6 236 145H238C238 145.6 237.6 146 237 146ZM240 142C240 142.6 239.6 143 239 143H235C234.4 143 234 142.6 234 142V140.5C234.9 140.8 235.9 141 237 141C238.1 141 239.1 140.8 240 140.5V142Z" fill="white"/>
<g filter="url(#filter2_d)">
<path d="M67.2844 115H39.8538C36.0685 115 33 118.048 33 121.807V149.049C33 152.809 36.0685 155.856 39.8538 155.856H67.2844C71.0696 155.856 74.1381 152.809 74.1381 149.049V121.807C74.1381 118.048 71.0696 115 67.2844 115Z" fill="#F58A8A"/>
</g>
<path d="M60 132H59V130C59 127.24 56.76 125 54 125C51.24 125 49 127.24 49 130V132H48C46.9 132 46 132.9 46 134V144C46 145.1 46.9 146 48 146H60C61.1 146 62 145.1 62 144V134C62 132.9 61.1 132 60 132ZM54 141C52.9 141 52 140.1 52 139C52 137.9 52.9 137 54 137C55.1 137 56 137.9 56 139C56 140.1 55.1 141 54 141ZM57.1 132H50.9V130C50.9 128.29 52.29 126.9 54 126.9C55.71 126.9 57.1 128.29 57.1 130V132Z" fill="white"/>
<g filter="url(#filter3_d)">
<path d="M205.284 12H177.854C174.069 12 171 15.0475 171 18.8068V46.0493C171 49.8086 174.069 52.8561 177.854 52.8561H205.284C209.07 52.8561 212.138 49.8086 212.138 46.0493V18.8068C212.138 15.0475 209.07 12 205.284 12Z" fill="#6FCF97"/>
</g>
<path d="M197.311 26.8965H180.979V37.1033H197.311V26.8965Z" fill="white"/>
<path d="M201.713 28.9276L198.108 30.4427V33.6003L201.713 35.1153H203.02V28.9276H201.713Z" fill="white"/>
<defs>
<filter id="filter0_d" x="64.1387" y="2" width="71.1381" height="70.8561" filterUnits="userSpaceOnUse" color-interpolation-filters="sRGB">
<feFlood flood-opacity="0" result="BackgroundImageFix"/>
<feColorMatrix in="SourceAlpha" type="matrix" values="0 0 0 0 0 0 0 0 0 0 0 0 0 0 0 0 0 0 127 0"/>
<feOffset dx="5" dy="5"/>
<feGaussianBlur stdDeviation="7.5"/>
<feColorMatrix type="matrix" values="0 0 0 0 0 0 0 0 0 0 0 0 0 0 0 0 0 0 0.15 0"/>
<feBlend mode="normal" in2="BackgroundImageFix" result="effect1_dropShadow"/>
<feBlend mode="normal" in="SourceGraphic" in2="effect1_dropShadow" result="shape"/>
</filter>
<filter id="filter1_d" x="206" y="105" width="71.1381" height="70.8561" filterUnits="userSpaceOnUse" color-interpolation-filters="sRGB">
<feFlood flood-opacity="0" result="BackgroundImageFix"/>
<feColorMatrix in="SourceAlpha" type="matrix" values="0 0 0 0 0 0 0 0 0 0 0 0 0 0 0 0 0 0 127 0"/>
<feOffset dx="5" dy="5"/>
<feGaussianBlur stdDeviation="7.5"/>
<feColorMatrix type="matrix" values="0 0 0 0 0 0 0 0 0 0 0 0 0 0 0 0 0 0 0.15 0"/>
<feBlend mode="normal" in2="BackgroundImageFix" result="effect1_dropShadow"/>
<feBlend mode="normal" in="SourceGraphic" in2="effect1_dropShadow" result="shape"/>
</filter>
<filter id="filter2_d" x="23" y="105" width="71.1381" height="70.8561" filterUnits="userSpaceOnUse" color-interpolation-filters="sRGB">
<feFlood flood-opacity="0" result="BackgroundImageFix"/>
<feColorMatrix in="SourceAlpha" type="matrix" values="0 0 0 0 0 0 0 0 0 0 0 0 0 0 0 0 0 0 127 0"/>
<feOffset dx="5" dy="5"/>
<feGaussianBlur stdDeviation="7.5"/>
<feColorMatrix type="matrix" values="0 0 0 0 0 0 0 0 0 0 0 0 0 0 0 0 0 0 0.15 0"/>
<feBlend mode="normal" in2="BackgroundImageFix" result="effect1_dropShadow"/>
<feBlend mode="normal" in="SourceGraphic" in2="effect1_dropShadow" result="shape"/>
</filter>
<filter id="filter3_d" x="161" y="2" width="71.1381" height="70.8561" filterUnits="userSpaceOnUse" color-interpolation-filters="sRGB">
<feFlood flood-opacity="0" result="BackgroundImageFix"/>
<feColorMatrix in="SourceAlpha" type="matrix" values="0 0 0 0 0 0 0 0 0 0 0 0 0 0 0 0 0 0 127 0"/>
<feOffset dx="5" dy="5"/>
<feGaussianBlur stdDeviation="7.5"/>
<feColorMatrix type="matrix" values="0 0 0 0 0 0 0 0 0 0 0 0 0 0 0 0 0 0 0.15 0"/>
<feBlend mode="normal" in2="BackgroundImageFix" result="effect1_dropShadow"/>
<feBlend mode="normal" in="SourceGraphic" in2="effect1_dropShadow" result="shape"/>
</filter>
<linearGradient id="paint0_linear" x1="145.273" y1="78.8651" x2="143.029" y2="209.076" gradientUnits="userSpaceOnUse">
<stop stop-color="white" stop-opacity="0"/>
<stop offset="1" stop-color="#64B5F6" stop-opacity="0.6"/>
</linearGradient>
<linearGradient id="paint1_linear" x1="157.409" y1="138.165" x2="175.559" y2="170.279" gradientUnits="userSpaceOnUse">
<stop stop-color="#E57373"/>
<stop offset="1" stop-color="#AD1457"/>
</linearGradient>
<linearGradient id="paint2_linear" x1="28164.2" y1="39796.5" x2="26252.2" y2="49297.9" gradientUnits="userSpaceOnUse">
<stop stop-color="#E57373"/>
<stop offset="1" stop-color="#AD1457"/>
</linearGradient>
<linearGradient id="paint3_linear" x1="225.122" y1="149.94" x2="175.589" y2="178.833" gradientUnits="userSpaceOnUse">
<stop stop-color="#FFF8E1"/>
<stop offset="1" stop-color="#FFCC80"/>
</linearGradient>
<linearGradient id="paint4_linear" x1="21675.4" y1="22321.6" x2="19004.7" y2="20508.4" gradientUnits="userSpaceOnUse">
<stop stop-color="#FFF8E1"/>
<stop offset="1" stop-color="#FFCC80"/>
</linearGradient>
<linearGradient id="paint5_linear" x1="161.703" y1="115.439" x2="134.661" y2="126.652" gradientUnits="userSpaceOnUse">
<stop stop-color="#FFF8E1"/>
<stop offset="1" stop-color="#FFCC80"/>
</linearGradient>
<linearGradient id="paint6_linear" x1="155.486" y1="86.1463" x2="124.053" y2="128.911" gradientUnits="userSpaceOnUse">
<stop stop-color="#FFB74D"/>
<stop offset="1" stop-color="#F4511E"/>
</linearGradient>
</defs>
</svg>
